packages/core/assets/Icons/arrow_down.svg

<svg viewBox="0 0 20 20" fill="none" xmlns="http://www.w3.org/2000/svg">
<path d="M9.16667 13.4791V4.16665C9.16667 3.93054 9.24653 3.73262 9.40625 3.5729C9.56597 3.41317 9.76389 3.33331 10 3.33331C10.2361 3.33331 10.434 3.41317 10.5938 3.5729C10.7535 3.73262 10.8333 3.93054 10.8333 4.16665V13.4791L14.9167 9.39581C15.0833 9.22915 15.2778 9.14928 15.5 9.15623C15.7222 9.16317 15.9167 9.24998 16.0833 9.41665C16.2361 9.58331 16.316 9.77776 16.3229 9.99998C16.3299 10.2222 16.25 10.4166 16.0833 10.5833L10.5833 16.0833C10.5 16.1666 10.4097 16.2257 10.3125 16.2604C10.2153 16.2951 10.1111 16.3125 10 16.3125C9.88889 16.3125 9.78472 16.2951 9.6875 16.2604C9.59028 16.2257 9.5 16.1666 9.41667 16.0833L3.91667 10.5833C3.76389 10.4305 3.6875 10.2396 3.6875 10.0104C3.6875 9.78123 3.76389 9.58331 3.91667 9.41665C4.08333 9.24998 4.28125 9.16665 4.51042 9.16665C4.73958 9.16665 4.9375 9.24998 5.10417 9.41665L9.16667 13.4791Z" fill="currentColor"/>
</svg>

<svg xmlns="http://www.w3.org/2000/svg" width="20" height="20" fill="none" viewBox="0 0 20 20">
  <path fill="#201F1F" d="M9.167 13.48V4.166c0-.236.08-.434.24-.594.159-.16.357-.24.593-.24s.434.08.594.24c.16.16.24.358.24.594v9.312l4.083-4.083a.763.763 0 0 1 .583-.24.839.839 0 0 1 .583.26.879.879 0 0 1 .24.584.763.763 0 0 1-.24.583l-5.5 5.5a.731.731 0 0 1-.27.177.923.923 0 0 1-.313.052.923.923 0 0 1-.313-.052.731.731 0 0 1-.27-.177l-5.5-5.5a.777.777 0 0 1-.23-.573c0-.229.077-.427.23-.593a.811.811 0 0 1 .593-.25c.23 0 .428.083.594.25l4.063 4.062Z"/>
</svg>
